X:137
T:Mountain Road
M:4/4
L:1/8
R:reel
K:D
F2AF BFAF|F2AF EFDE|F2AF BFAF|G2FG EDB,D|
F2AF BFAF|F2AF EFDE|FAA2 BAFB|ABde fddA|
|:dcdB ADFA|dcde fgfe|dcdB ADFA|G2FG EDB,D:|
